packages/core/src/svgs/tokens/branded/EDGE.svg

<svg width="24" height="24" viewBox="0 0 24 24" fill="none" xmlns="http://www.w3.org/2000/svg">
<path d="M21.9986 12.0006C21.9986 11.8407 21.9943 11.6819 21.9861 11.5238C21.9812 11.4139 21.9717 11.3057 21.9629 11.197C21.9629 11.155 21.9574 11.1126 21.9536 11.0702C21.9402 10.9311 21.924 10.7923 21.9049 10.6539V10.6314C21.8842 10.4846 21.8611 10.3383 21.8349 10.194C20.8362 4.76228 15.6245 1.16841 10.1941 2.16639C4.76358 3.16438 1.17034 8.37614 2.16769 13.8066C3.16568 19.2377 8.37744 22.8316 13.8085 21.8336C16.1794 21.3979 18.3129 20.1203 19.8164 18.236L16.7481 16.0507C15.4883 17.5235 13.8017 18.2497 12.0051 18.2497C11.1833 18.2528 10.3691 18.0931 9.60941 17.7802C8.84955 17.4673 8.15914 17.0071 7.57786 16.4263C6.99659 15.8455 6.53593 15.1554 6.22239 14.3959C5.90885 13.6363 5.74861 12.8223 5.75093 12.0006C5.74771 11.1791 5.90714 10.365 6.22005 9.60535C6.53295 8.84574 6.99314 8.15557 7.57407 7.57464C8.15499 6.99372 8.84517 6.53353 9.60474 6.22064C10.3644 5.90772 11.1785 5.74829 12 5.75151C13.3307 5.7489 14.6272 6.17208 15.7001 6.95915C16.773 7.74621 17.566 8.85588 17.963 10.1259H12.0051L10.4085 13.8753H21.833C21.9186 13.4029 21.9705 12.8586 21.988 12.3787C21.9954 12.2793 21.9986 12.1562 21.9986 12.0006Z" fill="#0ECC5F"/>
</svg>

<svg xmlns="http://www.w3.org/2000/svg" width="24" height="24" fill="none" viewBox="0 0 24 24">
    <path fill="#0ECC5F" d="M21.999 12a9 9 0 0 0-.013-.476q-.008-.164-.023-.327-.002-.063-.01-.127-.02-.209-.048-.416v-.023q-.03-.22-.07-.437c-.999-5.432-6.21-9.026-11.64-8.028s-9.025 6.21-8.027 11.64a9.998 9.998 0 0 0 17.649 4.43l-3.069-2.185c-1.26 1.473-2.946 2.199-4.743 2.199A6.23 6.23 0 0 1 5.751 12 6.225 6.225 0 0 1 12 5.753a6.235 6.235 0 0 1 5.963 4.374h-5.958l-1.597 3.75h11.425a11 11 0 0 0 .155-1.497c.007-.1.01-.223.01-.378"/>
</svg>
